!!!OTL: Trauer.
!!!OTL-incipit: ACH IN TRAUERN MUSS ICH LEBEN
!!!ARE: Europa, Mitteleuropa, Deutschland, Rhein
!!!SCT: Z1148
!!!TXL: @@DE
!!!YEM: Copyright 1995, estate of Helmut Schaffrath.
**kern	**text
*ICvox	*
*M3/4	*
*k[b-e-a-]	*
*E-:	*
=1	=1
!LO:TX:a:t=Vom Rheine.	!
{(4e-	Ach,
4g)	.
4b-/	in
=2	=2
(4b-/	Trau-
4g)	.
4b-/	-ern
=3	=3
(4cc	muß
4b-)	.
4a-	ich
=4	=4
(4a-	le-
4g)	.
4g}	-ben,
=5	=5
{(4e-	ach,
4g)	.
4b-/	was
=6	=6
(4b-/	hab'
4g)	.
4b-/	ich
=7	=7
(4cc	dann
4b-)	.
4a-	ver-
=8	=8
2g	-ſchuld't!
4r}	.
=9	=9
{(4cc	Hat
4ee-)	.
4cc	mein
=10	=10
(4b-/	Schatʒ
4a-)	.
4g	mich
=11	=11
(4a-	auf-
4cc)	.
4a-	-ge-
=12	=12
(4a-	-ge-
4g)	.
4g}	-ben,
=13	=13
{(4cc	muß
4ee-)	.
4cc	ich's
=14	=14
(4b-	tra-
4ee-)	.
4g	-gen
=15	=15
(4cc	mit
4b-)	.
4d	Ge-
=16	=16
2e-	-duld!
4r}	.
==	==
!!!AGN: Liebes - Lied, Abschieds - Lied
!!!ONB: ESAC (Essen Associative Code) Database: ZUCCAL
!!!AMT: simple triple
!!!AIN: vox
!!!EED: Helmut Schaffrath
!!!EEV: 1.0
!!!GTL: V. Lieder der Minne.
!!!URL-scan: https://www.digitale-sammlungen.de/de/view/bsb11160573?page=326
!!!ENC: Anna Maria Matuszewska
!!!EEV: 2025/02/05
*-	*-
